X: 22987
T: Lasses Of Stewarton, The
R: reel
M: 4/4
K: Dmixolydian
g|fde^c dAd2|FDDF A2 Ag|fde^c dA=c2|ECCE G2Gg|
fde^c dAd2|FDDF A2 Ag|fde^c dA=c2|ECCE G2Gc||
B/c/d AF ADDc|Bd AF A2Ac|B/c/d AF ABcA|GECE G2Gc|
Bd AF ADDc|Bd AF A2 AB|cBAG ABcA|GECE G2Gc||
BGAG BGAG|FDDF A2Ac|BGAG BGAG|ECCE G2Gc|
BGAG BGAG|FDDF A2 AB|cBAG ABcA|GECE G2 G/F/E||
Defg afdf|afdf a2 fe|defg afdf|gece g2 fe|
defg afdf|afdf abaf|defg abaf|gece gbag||

